icons/Bell_2_Off.svg

<svg width="24" height="24" viewBox="0 0 24 24" fill="none" xmlns="http://www.w3.org/2000/svg">
<path fill-rule="evenodd" clip-rule="evenodd" d="M6.47412,7.5348l-3.00445,-3.00445c-0.29289,-0.29289 -0.29289,-0.76776 0,-1.06066c0.29289,-0.29289 0.76777,-0.29289 1.06066,0l15.99997,16.00001c0.2929,0.2929 0.2929,0.7678 0,1.0607c-0.2929,0.2928 -0.7677,0.2928 -1.0606,0l-2.2804,-2.2804h-0.0162h-0.0287h-0.0286h-0.0288h-0.0289h-0.0289h-0.029h-0.029h-0.0292h-0.0292h-0.0586h-0.0294h-0.0295h-0.0295h-0.0297h-0.0297h-0.0297h-0.0299h-0.0298h-0.03h-0.03h-0.0301h-0.0302h-0.0302h-0.0303h-0.0303h-0.0304h-0.0305h-0.0305h-0.0306h-0.0307h-0.0307h-0.0308h-0.0308h-0.0309h-0.031h-0.031h-0.031h-0.0311h-0.0312h-0.0313h-0.0312h-0.0314h-0.0314h-0.0314h-0.0315h-0.0316h-0.0128c-0.1287,1.9545 -1.7548,3.5 -3.7418,3.5c-1.9871,0 -3.61319,-1.5455 -3.74184,-3.5h-0.14755h-0.48022h-0.46245h-0.22393h-0.02764h-0.02755h-0.05485h-0.0273h-0.02722h-0.02713h-0.02705h-0.81788h-0.02398h-0.02387h-0.02378h-0.02367h-0.02356h-0.02347h-0.02336h-0.02325h-0.02315h-0.02305h-0.02294h-0.02283h-0.02273h-0.02261h-0.02251h-0.02241h-0.17525h-0.0214h-0.02129h-0.02118h-0.02106h-0.02095h-0.02083h-0.02072h-0.0206h-0.02048h-0.02036h-0.02025h-0.02013h-0.02001h-0.01989h-0.01977h-0.01965h-0.01954h-0.0194h-0.01929h-0.01917h-0.01904h-0.01892h-0.01879h-0.01867h-0.01855h-0.01842h-0.0183h-0.01816h-0.07141h-0.01753h-0.0174h-0.01727h-0.01714h-0.01701h-0.01688h-0.01675h-0.01662c-0.95361,0 -1.26388,-1.1001 -0.74512,-1.6867c0.71182,-0.8047 1.0449,-1.5092 1.21463,-2.3181c0.17872,-0.8518 0.182,-1.8324 0.182,-3.2452c0,-1.29358 0.47515,-2.48401 1.22417,-3.4652zM7.54682,8.60751c-0.50505,0.71958 -0.79687,1.54209 -0.79687,2.39249v0.063c0.00005,1.3361 0.0001,2.47 -0.21396,3.4902c-0.16415,0.7823 -0.45076,1.4903 -0.92885,2.1968h3.39312h6.00004h0.689zM17.2503,11c0,-1.24235 -0.6227,-2.42513 -1.6231,-3.31445c-1.0017,-0.89044 -2.3283,-1.43555 -3.6269,-1.43555c-0.7433,0 -1.4958,0.17861 -2.19132,0.49835l-1.1154,-1.1154c0.78763,-0.43623 1.65972,-0.7306 2.55642,-0.83785v-1.7951c0,-0.41421 0.3358,-0.75 0.75,-0.75c0.4142,0 0.75,0.33579 0.75,0.75v1.79501c1.4364,0.17165 2.8096,0.82348 3.8738,1.76945c1.2494,1.11067 2.1265,2.6779 2.1265,4.43554c0,1.4127 0.0034,2.3934 0.1822,3.2451c0.1698,0.8089 0.503,1.5134 1.2149,2.3182c0.1923,0.2175 0.2699,0.499 0.2461,0.7696l-2.9655,-2.9655c-0.1777,-0.9723 -0.1777,-2.0497 -0.1777,-3.306zM12.0003,20.25c1.1581,0 2.1119,-0.875 2.2362,-2h-0.0152h-0.0335h-0.0336h-0.0335h-0.0336h-0.0336h-0.0337h-0.0337h-0.0337h-0.0337h-0.0337h-0.0338h-0.0338h-0.0338h-0.0339h-0.0338h-0.0339h-0.0339h-0.0339h-0.034h-0.034h-0.0339h-0.034h-0.0341h-0.034h-0.0341h-0.034h-0.0341h-0.0341h-0.0342h-0.0341h-0.0341h-0.0342h-0.0342h-0.0342h-0.0342h-0.0342h-0.0342h-0.0342h-0.0343h-0.0342h-0.0343h-0.0343h-0.0343h-0.0342h-0.0343h-0.0343h-0.0344h-0.2746h-0.5494h-0.5478h-0.2727h-0.034h-0.034h-0.034h-0.0339h-0.034h-0.0339h-0.0339h-0.0338h-0.0339h-0.0338h-0.0338h-0.0338h-0.0675h-0.0337h-0.0337h-0.2685h-0.40481c0.12436,1.125 1.07811,2 2.23631,2z" fill="#002B51"/>
</svg>

<svg width="24" height="24" viewBox="0 0 24 24" fill="none" xmlns="http://www.w3.org/2000/svg">
<path fill-rule="evenodd" clip-rule="evenodd" d="M6.47412 7.5348L3.46967 4.53035C3.17678 4.23746 3.17678 3.76259 3.46967 3.46969C3.76256 3.1768 4.23744 3.1768 4.53033 3.46969L20.5303 19.4697C20.8232 19.7626 20.8232 20.2375 20.5303 20.5304C20.2374 20.8232 19.7626 20.8232 19.4697 20.5304L17.1893 18.25H17.1731H17.1444H17.1158H17.087H17.0581H17.0292H17.0002H16.9712H16.942H16.9128H16.8542H16.8248H16.7953H16.7658H16.7361H16.7064H16.6767H16.6468H16.617H16.587H16.557H16.5269H16.4967H16.4665H16.4362H16.4059H16.3755H16.345H16.3145H16.2839H16.2532H16.2225H16.1917H16.1609H16.13H16.099H16.068H16.037H16.0059H15.9747H15.9434H15.9122H15.8808H15.8494H15.818H15.7865H15.7549H15.7421C15.6134 20.2045 13.9873 21.75 12.0003 21.75C10.0132 21.75 8.38711 20.2045 8.25846 18.25H8.11091H7.63069H7.16824H6.94431H6.91667H6.88912H6.83427H6.80697H6.77975H6.75262H6.72557H5.90769H5.88371H5.85984H5.83606H5.81239H5.78883H5.76536H5.742H5.71875H5.6956H5.67255H5.64961H5.62678H5.60405H5.58144H5.55893H5.53652H5.36127H5.33987H5.31858H5.2974H5.27634H5.25539H5.23456H5.21384H5.19324H5.17276H5.1524H5.13215H5.11202H5.09201H5.07212H5.05235H5.0327H5.01316H4.99376H4.97447H4.9553H4.93626H4.91734H4.89855H4.87988H4.86133H4.84291H4.82461H4.80645H4.73504H4.71751H4.70011H4.68284H4.6657H4.64869H4.63181H4.61506H4.59844C3.64483 18.25 3.33456 17.1499 3.85332 16.5633C4.56514 15.7586 4.89822 15.0541 5.06795 14.2452C5.24667 13.3934 5.24995 12.4128 5.24995 11C5.24995 9.70642 5.7251 8.51599 6.47412 7.5348ZM15.6893 16.75H15.0003H9.00026H5.60714C6.08523 16.0435 6.37184 15.3355 6.53599 14.5532C6.75005 13.533 6.75 12.3991 6.74995 11.063L6.74995 11C6.74995 10.1496 7.04177 9.32709 7.54682 8.60751L15.6893 16.75ZM17.2503 11.0614C17.2503 12.3177 17.2503 13.3951 17.428 14.3674L20.3935 17.3329C20.4173 17.0623 20.3397 16.7808 20.1474 16.5633C19.4355 15.7585 19.1023 15.054 18.9325 14.2451C18.7537 13.3934 18.7503 12.4127 18.7503 11C18.7503 9.24236 17.8732 7.67513 16.6238 6.56446C15.5596 5.61849 14.1864 4.96666 12.75 4.79501V3C12.75 2.58579 12.4142 2.25 12 2.25C11.5858 2.25 11.25 2.58579 11.25 3V4.7951C10.3533 4.90235 9.48121 5.19672 8.69358 5.63295L9.80898 6.74835C10.5045 6.42861 11.257 6.25 12.0003 6.25C13.2989 6.25 14.6255 6.79511 15.6272 7.68555C16.6276 8.57487 17.2503 9.75765 17.2503 11L17.2503 11.0614ZM12.0003 20.25C13.1584 20.25 14.1122 19.375 14.2365 18.25H14.2213H14.1878H14.1542H14.1207H14.0871H14.0535H14.0198H13.9861H13.9524H13.9187H13.885H13.8512H13.8174H13.7836H13.7497H13.7159H13.682H13.6481H13.6142H13.5802H13.5462H13.5123H13.4783H13.4442H13.4102H13.3761H13.3421H13.308H13.2739H13.2397H13.2056H13.1715H13.1373H13.1031H13.0689H13.0347H13.0005H12.9663H12.9321H12.8978H12.8636H12.8293H12.795H12.7607H12.7265H12.6922H12.6579H12.6235H12.3489H11.7995H11.2517H10.979H10.945H10.911H10.877H10.8431H10.8091H10.7752H10.7413H10.7075H10.6736H10.6398H10.606H10.5722H10.5047H10.471H10.4373H10.1688H9.76399C9.88835 19.375 10.8421 20.25 12.0003 20.25Z" fill="#002B51"/>
</svg>
